!!!OTL: Graf und Nonne (Die Nonne) "Mei Schatz, du hast g'sagt, du naehmest mich,
!!!ARE: Europa, Osteuropa, Ungarn, Banat, Almaskamaras
!!!YOR: 8, S. 288
!!    ???? aufgezeichnet
!!!SCT: Q0155A.
!!!YEM: Copyright 1995, estate of Helmut Schaffrath.
**kern
*ICvox
*Ivox
*M2/4
*k[f#]
*G:
{8d
=1
8g
8g
8f#
8e
=2
8e
8d
8d}
{8f#
=3
8g
8g
8a
8d
=4
4b
8r}
{8g
=5
8.g
16b
8b
8dd
=6
4dd
8cc}
{8b
=7
8a
8g
8f#
8ee
=8
4ee
8dd}
{8cc
=9
8b
8b
8dd
8cc
=10
4b
8r}
{8g
=11
8.g
16b
8b
8dd
=12
4dd
8cc}
{8b
=13
8a
8g
8f#
8ee
=14
4ee
8dd}
{8cc
=15
8b
8b
8dd
8cc
=16
4b
8r}
==
!!!AGN: Ballade, Standesunterschied, vergebliche Werbung, Liebes - Lied
!! Sehr viele Verzierungen (Vorschlaege) . Schlusston rhythmisch
!!    korrigiert.
!!!ONB: ESAC (Essen Associative Code) Database: BALLADE
!!!AMT: simple duple
!!!AIN: vox
!!!EED: Helmut Schaffrath
!!!EEV: 1.0
*-
